X: 11057
T: Dublin, The
R: reel
M: 4/4
K: Dmajor
dF~F2 dFeF|dF~F2 AFEF|d2dc dfed|1 c2Bc A ABc:|2 cdBc ABcd||
eA~A2 eAfA|eA~A2 BAFA|eA~A2 egfe|dB (3cBA BAFA|
eA~A2 eAfA|eA~A2 BAFA|~e2ed egfe|dB (3cBA BAFA||
~d2dc dAFA|dedB AGFA|~d2dc dfed|cdBc A ABc|
d2dc dAFA|dcdB AGFA|~d2 df ~e2 eg|fdBc defe||

